X:1
T:Title
%%score { 1 | 2 }
L:1/8
M:4/4
K:Ab
V:1 treble nm="Grand Piano"
V:2 bass 
V:1
 z4 z2[Q:1/4=116] [CE]2 | [Ec]2 [CA]2 [CE]2 [EA]2 | [EG]2 F4 F2 | F2 d2 d2 F2 |[M:3/4] [CE]6 | %5
[M:1/4] [CE]2 |[M:4/4] [Ec]2 [CA]2 [CE]2 [EA]2 | [EG]2 F4 F2 | E2 d2 c3 B |[M:3/4] [CA]6 | %10
[M:1/4] [CE]2 |[M:4/4] B3 B F2 G2 | [CA]2 [CE]4 cc | e c3 B2 A2 |[M:3/4] B6 |[M:1/4] c2 | %16
[M:4/4] e2 c2 [EA]2 [CE]2 | [EG]2 F4 F2 | E2 d2 c3 B |[M:3/4] [CA]6 |] %20
V:2
 z4 z2 [A,,A,]2 | [A,,A,]2 [A,,E,]2 [A,,A,]2 [C,A,]2 | [D,A,]2 [D,A,D]4 [D,A,D]2 | %3
 [D,A,D]2 [D,F,D]2 [D,F,D]2 [D,A,D]2 |[M:3/4] [A,,A,]6 |[M:1/4] [A,,A,]2 | %6
[M:4/4] [A,,A,]2 [A,,A,]2 [A,,A,]2 [C,A,]2 | [D,A,]2 [D,A,D]4 [D,A,D]2 | %8
 [E,A,C]2 [E,B,E]2 [E,A,E]3 [E,G,D] |[M:3/4] [A,,A,]6 |[M:1/4] [A,,A,]2 | %11
[M:4/4] [E,G,E]3 [E,G,E] [E,A,D]2 [E,B,D]2 | [A,,A,]2 [A,,A,]4[K:treble] [A,E][A,E] | %13
 [A,CA] [A,EA]3 [G,B,E]2[K:bass] [F,B,=D]2 |[M:3/4] [E,G,E]6 |[M:1/4] [A,E]2 | %16
[M:4/4] [A,CE]2 [A,E]2 [C,A,]2 [A,,A,]2 | [D,A,]2 [D,A,D]4 [D,A,D]2 | %18
 [E,A,C]2 [E,B,E]2 [E,A,E]3 [E,G,D] |[M:3/4] [A,,A,]6 |] %20

